include/LD/assets/icons/custom/custom24.svg

<?xml version="1.0"?><svg xmlns="http://www.w3.org/2000/svg" width="100" height="100" viewBox="0 0 100 100"><g fill="#fff"><path d="m68.1 20h-36.2c-3.3 0-5.9 2.7-5.9 5.9v0.1c0 1.1 0.9 2 2 2h44c1.1 0 2-0.9 2-2v-0.1c0-3.2-2.7-5.9-5.9-5.9z m-0.1 14h-36c-1.1 0-2 0.9-2 2v42c0 1.1 0.9 2 2 2h11.1c1.1 0 1.9-0.9 1.9-2v-8c0-1.1 1-2 2.1-2h5.8c1.1 0 2.1 0.9 2.1 2v8c0 1.1 0.8 2 1.9 2h11.1c1.1 0 2-0.9 2-2v-42c0-1.1-0.9-2-2-2z m-21 27c0 1.1-0.9 2-2 2h-4c-1.1 0-2-0.9-2-2v-4c0-1.1 0.9-2 2-2h4c1.1 0 2 0.9 2 2v4z m0-14c0 1.1-0.9 2-2 2h-4c-1.1 0-2-0.9-2-2v-4c0-1.1 0.9-2 2-2h4c1.1 0 2 0.9 2 2v4z m14 14c0 1.1-0.9 2-2 2h-4c-1.1 0-2-0.9-2-2v-4c0-1.1 0.9-2 2-2h4c1.1 0 2 0.9 2 2v4z m0-14c0 1.1-0.9 2-2 2h-4c-1.1 0-2-0.9-2-2v-4c0-1.1 0.9-2 2-2h4c1.1 0 2 0.9 2 2v4z"></path></g></svg>

<svg xmlns="http://www.w3.org/2000/svg" x="0px" y="0px"
	 width="100px" height="100px" viewBox="0 0 100 100" enable-background="new 0 0 100 100" xml:space="preserve">
<g>
	<path fill="#FFFFFF" d="M68.1,20H31.9c-3.3,0-5.9,2.7-5.9,5.9V26c0,1.1,0.9,2,2,2h44c1.1,0,2-0.9,2-2v-0.1C74,22.7,71.3,20,68.1,20
		z"/>
	<path fill="#FFFFFF" d="M68,34H32c-1.1,0-2,0.9-2,2v42c0,1.1,0.9,2,2,2h11.1c1.1,0,1.9-0.9,1.9-2v-8c0-1.1,1-2,2.1-2h5.8
		c1.1,0,2.1,0.9,2.1,2v8c0,1.1,0.8,2,1.9,2H68c1.1,0,2-0.9,2-2V36C70,34.9,69.1,34,68,34z M47,61c0,1.1-0.9,2-2,2h-4
		c-1.1,0-2-0.9-2-2v-4c0-1.1,0.9-2,2-2h4c1.1,0,2,0.9,2,2V61z M47,47c0,1.1-0.9,2-2,2h-4c-1.1,0-2-0.9-2-2v-4c0-1.1,0.9-2,2-2h4
		c1.1,0,2,0.9,2,2V47z M61,61c0,1.1-0.9,2-2,2h-4c-1.1,0-2-0.9-2-2v-4c0-1.1,0.9-2,2-2h4c1.1,0,2,0.9,2,2V61z M61,47
		c0,1.1-0.9,2-2,2h-4c-1.1,0-2-0.9-2-2v-4c0-1.1,0.9-2,2-2h4c1.1,0,2,0.9,2,2V47z"/>
</g>
</svg>
